www/assets/icons/next_plan.svg

<svg xmlns="http://www.w3.org/2000/svg" width="24" height="24" viewBox="0 0 24 24" fill='currentColor'><path d="M12 2C6.48 2 2 6.48 2 12s4.48 10 10 10 10-4.48 10-10S17.52 2 12 2m6 11.97h-5l2.26-2.26a4.94 4.94 0 0 0-3.76-1.74c-2.37 0-4.35 1.66-4.86 3.88l-.96-.32c.64-2.62 3-4.56 5.82-4.56 1.78 0 3.37.79 4.47 2.03L18 8.97z"/></svg>

<svg width="24" height="24" viewBox="0 0 24 24" xmlns="http://www.w3.org/2000/svg" fill='currentColor'><path d="M12 2C6.48 2 2 6.48 2 12C2 17.52 6.48 22 12 22C17.52 22 22 17.52 22 12C22 6.48 17.52 2 12 2ZM18 13.97H13L15.26 11.71C14.35 10.65 13.01 9.97 11.5 9.97C9.13 9.97 7.15 11.63 6.64 13.85L5.68 13.53C6.32 10.91 8.68 8.97 11.5 8.97C13.28 8.97 14.87 9.76 15.97 11L18 8.97V13.97Z"/></svg>
